src/symbolic/categories/preferences-system-time-symbolic.svg

<?xml version="1.0" encoding="UTF-8" standalone="no"?>
<svg
   xmlns:dc="http://purl.org/dc/elements/1.1/"
   xmlns:cc="http://creativecommons.org/ns#"
   xmlns:rdf="http://www.w3.org/1999/02/22-rdf-syntax-ns#"
   xmlns:svg="http://www.w3.org/2000/svg"
   xmlns="http://www.w3.org/2000/svg"
   xmlns:sodipodi="http://sodipodi.sourceforge.net/DTD/sodipodi-0.dtd"
   xmlns:inkscape="http://www.inkscape.org/namespaces/inkscape"
   height="16"
   width="16"
   version="1.1"
   id="svg6"
   sodipodi:docname="preferences-system-time-symbolic.svg"
   inkscape:version="0.92.4 (5da689c313, 2019-01-14)">
  <metadata
     id="metadata12">
    <rdf:RDF>
      <cc:Work
         rdf:about="">
        <dc:format>image/svg+xml</dc:format>
        <dc:type
           rdf:resource="http://purl.org/dc/dcmitype/StillImage" />
      </cc:Work>
    </rdf:RDF>
  </metadata>
  <defs
     id="defs10" />
  <sodipodi:namedview
     pagecolor="#ffffff"
     bordercolor="#666666"
     borderopacity="1"
     objecttolerance="10"
     gridtolerance="10"
     guidetolerance="10"
     inkscape:pageopacity="0"
     inkscape:pageshadow="2"
     inkscape:window-width="1366"
     inkscape:window-height="711"
     id="namedview8"
     showgrid="true"
     inkscape:zoom="20.85965"
     inkscape:cx="11.516643"
     inkscape:cy="4.4041457"
     inkscape:window-x="0"
     inkscape:window-y="27"
     inkscape:window-maximized="1"
     inkscape:current-layer="svg6">
    <inkscape:grid
       type="xygrid"
       id="grid823" />
  </sodipodi:namedview>
  <path
     style="color:#000000;font-weight:400;line-height:normal;font-family:sans-serif;font-variant-ligatures:normal;font-variant-position:normal;font-variant-caps:normal;font-variant-numeric:normal;font-variant-alternates:normal;font-feature-settings:normal;text-indent:0;text-align:start;text-decoration:none;text-decoration-line:none;text-decoration-style:solid;text-decoration-color:#000000;text-transform:none;text-orientation:mixed;white-space:normal;shape-padding:0;overflow:visible;isolation:auto;mix-blend-mode:normal;fill:#666666"
     d="M 8 1 A 7 7 0 0 0 1 8 A 7 7 0 0 0 8 15 A 7 7 0 0 0 15 8 A 7 7 0 0 0 8 1 z M 8 2.1328125 A 5.85 5.85 0 0 1 13.867188 8 A 5.85 5.85 0 0 1 8 13.867188 A 5.85 5.85 0 0 1 2.1328125 8 A 5.85 5.85 0 0 1 8 2.1328125 z M 11.162109 4.2695312 A 0.533 0.533 0 0 0 11.085938 4.2773438 L 11.085938 4.2851562 A 0.533 0.533 0 0 0 10.818359 4.4511719 L 7.984375 7.2773438 L 6.21875 5.5195312 A 0.533 0.533 0 1 0 5.484375 6.2519531 L 7.6191406 8.3867188 A 0.533 0.533 0 0 0 8.3515625 8.3867188 L 11.552734 5.1855469 A 0.533 0.533 0 0 0 11.162109 4.2695312 z "
     id="path2" />
</svg>

<svg xmlns="http://www.w3.org/2000/svg" height="16" width="16"><path style="line-height:normal;font-variant-ligatures:normal;font-variant-position:normal;font-variant-caps:normal;font-variant-numeric:normal;font-variant-alternates:normal;font-feature-settings:normal;text-indent:0;text-align:start;text-decoration-line:none;text-decoration-style:solid;text-decoration-color:#000;text-transform:none;text-orientation:mixed;white-space:normal;shape-padding:0;isolation:auto;mix-blend-mode:normal" d="M8 1a7 7 0 0 0-7 7 7 7 0 0 0 7 7 7 7 0 0 0 7-7 7 7 0 0 0-7-7zm0 1.133A5.85 5.85 0 0 1 13.867 8 5.85 5.85 0 0 1 8 13.867 5.85 5.85 0 0 1 2.133 8 5.85 5.85 0 0 1 8 2.133zm3.162 2.137a.533.533 0 0 0-.076.007v.008a.533.533 0 0 0-.268.166L7.984 7.277 6.22 5.52a.533.533 0 1 0-.735.732L7.62 8.387a.533.533 0 0 0 .733 0l3.2-3.201a.533.533 0 0 0-.39-.916z" color="#000" font-weight="400" font-family="sans-serif" overflow="visible" fill="#5d656b"/></svg>
